svg/fluentui-system-icons/ic_fluent_arrow_circle_down_32_filled.svg

<svg width="32" height="32" viewBox="0 0 32 32" fill="none" xmlns="http://www.w3.org/2000/svg">
<path d="M16 2C8.26801 2 2 8.26801 2 16C2 23.732 8.26801 30 16 30C23.732 30 30 23.732 30 16C30 8.26801 23.732 2 16 2ZM9.29289 15.2929C9.68342 14.9024 10.3166 14.9024 10.7071 15.2929L15 19.5858L15 10C15 9.44771 15.4477 9 16 9C16.5523 9 17 9.44771 17 10L17 19.5858L21.2929 15.2929C21.6834 14.9024 22.3166 14.9024 22.7071 15.2929C23.0976 15.6834 23.0976 16.3166 22.7071 16.7071L16.7071 22.7071C16.3166 23.0976 15.6834 23.0976 15.2929 22.7071L9.29289 16.7071C8.90237 16.3166 8.90237 15.6834 9.29289 15.2929Z" fill="#212121"/>
</svg>

<svg xmlns="http://www.w3.org/2000/svg" width="32" height="32"><path d="M16 2C8.268 2 2 8.268 2 16s6.268 14 14 14 14-6.268 14-14S23.732 2 16 2ZM9.293 15.293a1 1 0 0 1 1.414 0L15 19.586V10a1 1 0 1 1 2 0v9.586l4.293-4.293a1 1 0 0 1 1.414 1.414l-6 6a1 1 0 0 1-1.414 0l-6-6a1 1 0 0 1 0-1.414Z"/></svg>
